X:1
T:The Margot Evans (Let the Bullgine Run)
M:4/4
L:1/4
K:G
 B/2A/2| G G F F| E E D B,| D3/2 B,/2 D3/2 B,/2| D D D| D/2D/2| E E G/2G/2 A/2A/2|\
 BA/2-G/2 A B| G3/2 E/2 F E/2D/2| B, E E| E/2F/2| G A/2G/2 F G/2F/2|\
 E E D B,| D3/2 B,/2 D3/2 B,/2| D D D| B,| E E G A| BA/2-G/2 A B| G3/2 E/2 F E/2D/2|\
 B, E E||
